packages/core/src/svgs/tokens/branded/HST.svg

<svg width="24" height="24" viewBox="0 0 24 24" fill="none" xmlns="http://www.w3.org/2000/svg">
<path d="M16.94 17C19.7345 17 22 14.7615 22 12.0001C22 9.23858 19.7345 7.00012 16.94 7.00012C14.4922 7.00012 12.4502 8.71809 11.9812 11H17.0001C17.2653 11 17.5196 11.1054 17.7072 11.293C17.8947 11.4805 18.0001 11.7348 18.0001 12.0001C18.0001 12.2653 17.8947 12.5196 17.7072 12.7072C17.5196 12.8947 17.2653 13 17.0001 13H11.9812C12.4502 15.2824 14.4922 17 16.94 17Z" fill="#545EFF"/>
<path fill-rule="evenodd" clip-rule="evenodd" d="M2.99998 7.00012C2.73478 7.00012 2.48043 7.10547 2.29289 7.29301C2.10536 7.48054 2 7.73489 2 8.0001V15.9999C2 16.2652 2.10536 16.5196 2.29289 16.707C2.48043 16.8946 2.73478 17 2.99998 17H10.9999C11.265 17 11.5195 16.8946 11.707 16.707C11.8944 16.5196 11.9999 16.2652 11.9999 15.9999V8.0001C11.9999 7.73489 11.8944 7.48054 11.707 7.29301C11.5195 7.10547 11.265 7.00012 10.9999 7.00012H2.99998ZM11.9978 11H7.91041L5.99994 13H11.9978V11Z" fill="white"/>
</svg>

<svg xmlns="http://www.w3.org/2000/svg" width="24" height="24" fill="none" viewBox="0 0 24 24">
    <path fill="#545EFF" d="M16.94 17c2.794 0 5.06-2.238 5.06-5s-2.265-5-5.06-5c-2.448 0-4.49 1.718-4.959 4h5.02a1 1 0 0 1 0 2h-5.02c.47 2.282 2.511 4 4.959 4"/>
    <path fill="#fff" fill-rule="evenodd" d="M3 7a1 1 0 0 0-1 1v8a1 1 0 0 0 1 1h8a1 1 0 0 0 1-1V8a1 1 0 0 0-1-1zm8.998 4H7.91L6 13h5.998z" clip-rule="evenodd"/>
</svg>
